X:9
T:Polska
R:sl\"angpolska
H:Ocks{\aa} spelad i Gm eller Dm
A:Sk{\aa}ne, Sm{\aa}land?
Z:id:hn-sp-9
M:3/4
L:1/16
K:Am
E2A^G A2B2 c2c2 | B2B^G BGBd c2B2 | ABcB ABcB A2^GA |
B2B^G EFED C2B,2 | E2A2 A2B2 c2c2 | B2B^G BGBd c2B2 |
ABcB ABcd e2ed | cBA^G G2BG A2A2 :||: e2c2 c2e2 d2c2 |
BABc BABc d2B2 | e2c2 c2e2 d2c2 | BABc BABc d2B2 | 
c2Ac B2^GB c2A2 | B2B^G BGBd c2B2 | ABcB ABcd e2ed |
cBA^G G2BG A2A2 :| 
<end>
<start>
